src/assets/checkmark.svg

<svg width="25" height="25" viewBox="0 0 25 25" fill="none" xmlns="http://www.w3.org/2000/svg">
<path fill-rule="evenodd" clip-rule="evenodd" d="M7.68926 9.75137L6.00938 11.4312L11.4094 16.8312L23.4094 4.83125L21.7295 3.15137L11.4094 13.4111L7.68926 9.75137ZM22.2094 12.0312C22.2094 17.3111 17.8892 21.6313 12.6094 21.6313C7.32955 21.6313 3.00938 17.3111 3.00938 12.0312C3.00938 6.75137 7.32949 2.43125 12.6094 2.43125C13.5094 2.43125 14.4094 2.55137 15.2496 2.79131L17.1094 0.93125C15.7295 0.33125 14.2295 0.03125 12.6094 0.03125C6.00938 0.03125 0.609375 5.43125 0.609375 12.0312C0.609375 18.6313 6.00938 24.0312 12.6094 24.0312C19.2094 24.0312 24.6094 18.6313 24.6094 12.0312H22.2094Z" fill="#2196F3"/>
</svg>

<svg width="25" height="25" fill="none" xmlns="http://www.w3.org/2000/svg"><path fill-rule="evenodd" clip-rule="evenodd" d="m7.69 9.751-1.68 1.68 5.4 5.4 12-12-1.68-1.68-10.32 10.26-3.72-3.66zm14.52 2.28c0 5.28-4.32 9.6-9.6 9.6-5.28 0-9.6-4.32-9.6-9.6 0-5.28 4.32-9.6 9.6-9.6.9 0 1.8.12 2.64.36l1.86-1.86c-1.38-.6-2.88-.9-4.5-.9-6.6 0-12 5.4-12 12s5.4 12 12 12 12-5.4 12-12h-2.4z" fill="#2196F3"/></svg>
